X: 15067
T: German Stone Collector, The
R: reel
M: 4/4
K: Edorian
"Em"~E2EB AFDF|(3GFE BG "D"eBGB|"A7"(3cBA E=c "Bmin"~B2"G"BG|"A7"Aceg "D"fdAF|
"Em"~E2EB AFFF|(3GFE BG eBGB|"A7"Aceg "D"fdAF|1 "G"GBAF "Em"GEED:|2 "G"GBAF "Em"GEed||
|:"A7"cega "D"~f2ed|"Em"eB B/B/B eBGB|"D"AFdA Jf2ed|"Em"eB B/B/B eBGB|
"A7"cege "D"~f2ed|(3bag af "G"geBG|"A7"Aceg "D"fdAF|1 "G"GBAF "Em"GBed:|2 "G"GBAF "Em"GEED||

